X: 261
T: Isle of Skye
R: reel
M: C
L: 1/8
Z: 2012 John Chambers <jc:trillian.mit.edu>
B: J. Anderson "Budget of Strathspeys, Reels and Country Dances" (Early 1800s) p.26 #1
F: http://imslp.org/wiki/Anderson%27s_Budget_of_Strathspeys,_Reels_and_Country_Dances_(Various)
N: The beats don't work right at the part boundaries.
K: A
A |\
dAFA dAFA | GEEd eBBe | dAFA dAFA | GFEA FDD :|
afdd' afdf | edef edBb | afad' afdf | edef d/d/d (df) |
afdd' afdf | edef edBe | defg abc'd' | edef d/d/dd2 :|

%%sep 2 1 500
%%sep 1 1 500

